mediabuilder/img/social/inst.svg

<svg width="36" height="36" viewBox="0 0 36 36" fill="none" xmlns="http://www.w3.org/2000/svg">
<path fill-rule="evenodd" clip-rule="evenodd" d="M18.0004 3.1499C13.9671 3.1499 13.4622 3.16772 11.8777 3.239C10.2977 3.31177 9.2181 3.56273 8.27364 3.92953C7.28238 4.30203 6.38435 4.88636 5.64222 5.64173C4.88688 6.3839 4.30256 7.28192 3.93002 8.27315C3.56322 9.21761 3.31226 10.2972 3.23949 11.8772C3.16673 13.4617 3.15039 13.9666 3.15039 17.9999C3.15039 22.0332 3.16673 22.5381 3.23949 24.1226C3.31226 25.7026 3.56322 26.7822 3.93002 27.7267C4.30261 28.7179 4.88692 29.6159 5.64222 30.3581C6.38441 31.1134 7.28243 31.6977 8.27364 32.0703C9.2181 32.4371 10.2977 32.688 11.8777 32.7608C13.4622 32.8321 13.9671 32.8499 18.0004 32.8499C22.0336 32.8499 22.5385 32.8321 24.123 32.7608C25.7031 32.688 26.7827 32.4371 27.7271 32.0703C28.7184 31.6977 29.6164 31.1134 30.3586 30.3581C31.1139 29.6159 31.6982 28.7179 32.0708 27.7267C32.4376 26.7822 32.6885 25.7026 32.7613 24.1226C32.8326 22.5381 32.8504 22.0332 32.8504 17.9999C32.8504 13.9666 32.8326 13.4617 32.7613 11.8772C32.6885 10.2972 32.4376 9.21761 32.0708 8.27315C31.6982 7.28192 31.1139 6.3839 30.3586 5.64173C29.6164 4.88636 28.7184 4.30203 27.7271 3.92953C26.7827 3.56273 25.7031 3.31177 24.123 3.239C22.5385 3.16772 22.0336 3.1499 18.0004 3.1499ZM18.0004 5.82587C21.9653 5.82587 22.4346 5.84072 23.9998 5.912C25.4492 5.97883 26.2347 6.2194 26.7589 6.42284C27.4509 6.69311 27.9469 7.01536 28.4667 7.53362C28.9864 8.05337 29.3072 8.54936 29.5774 9.24137C29.7794 9.76558 30.0229 10.5511 30.0883 11.999C30.1596 13.5657 30.1744 14.0335 30.1744 17.9999C30.1744 21.9649 30.1596 22.4341 30.0883 23.9993C30.0215 25.4487 29.7794 26.2342 29.5774 26.7584C29.3394 27.4035 28.9598 27.987 28.4667 28.4662C27.9469 28.9859 27.4509 29.3067 26.7589 29.577C26.2347 29.7789 25.4492 30.0225 24.0013 30.0878C22.4361 30.1591 21.9668 30.1739 18.0004 30.1739C14.0354 30.1739 13.5647 30.1591 12.001 30.0878C10.5516 30.021 9.76607 29.7789 9.24186 29.577C8.59675 29.339 8.0132 28.9594 7.53411 28.4662C7.04088 27.9871 6.66132 27.4035 6.42333 26.7584C6.21989 26.2342 5.97783 25.4487 5.91249 24.0008C5.84121 22.4341 5.82636 21.9663 5.82636 17.9999C5.82636 14.035 5.84121 13.5657 5.91249 12.0005C5.97932 10.5511 6.21989 9.76558 6.42333 9.24137C6.6936 8.54936 7.01585 8.05337 7.53411 7.53362C8.05386 7.01387 8.54985 6.69311 9.24186 6.42284C9.76607 6.2194 10.5516 5.97734 11.9995 5.912C13.5662 5.84072 14.034 5.82587 18.0004 5.82587ZM18.0004 22.9494C16.6877 22.9494 15.4288 22.4279 14.5006 21.4997C13.5723 20.5715 13.0509 19.3126 13.0509 17.9999C13.0509 16.6872 13.5723 15.4283 14.5006 14.5001C15.4288 13.5719 16.6877 13.0504 18.0004 13.0504C19.3131 13.0504 20.572 13.5719 21.5002 14.5001C22.4284 15.4283 22.9499 16.6872 22.9499 17.9999C22.9499 19.3126 22.4284 20.5715 21.5002 21.4997C20.572 22.4279 19.3131 22.9494 18.0004 22.9494ZM18.0004 10.3744C16.999 10.3744 16.0074 10.5717 15.0822 10.9549C14.1571 11.3381 13.3165 11.8998 12.6084 12.6079C11.9003 13.316 11.3386 14.1566 10.9554 15.0818C10.5722 16.0069 10.3749 16.9985 10.3749 17.9999C10.3749 19.0013 10.5722 19.9929 10.9554 20.918C11.3386 21.8432 11.9003 22.6838 12.6084 23.3919C13.3165 24.1 14.1571 24.6617 15.0822 25.0449C16.0074 25.4281 16.999 25.6254 18.0004 25.6254C20.0228 25.6254 21.9624 24.822 23.3924 23.3919C24.8225 21.9619 25.6259 20.0223 25.6259 17.9999C25.6259 15.9775 24.8225 14.0379 23.3924 12.6079C21.9624 11.1778 20.0228 10.3744 18.0004 10.3744ZM27.7093 10.073C27.7093 10.307 27.6632 10.5387 27.5737 10.7549C27.4841 10.9711 27.3529 11.1676 27.1874 11.333C27.0219 11.4985 26.8255 11.6298 26.6093 11.7193C26.3931 11.8089 26.1613 11.855 25.9273 11.855C25.6933 11.855 25.4616 11.8089 25.2454 11.7193C25.0292 11.6298 24.8327 11.4985 24.6673 11.333C24.5018 11.1676 24.3705 10.9711 24.281 10.7549C24.1914 10.5387 24.1453 10.307 24.1453 10.073C24.1453 9.60036 24.3331 9.1471 24.6673 8.81291C25.0014 8.47872 25.4547 8.29097 25.9273 8.29097C26.3999 8.29097 26.8532 8.47872 27.1874 8.81291C27.5216 9.1471 27.7093 9.60036 27.7093 10.073Z" fill="url(#paint0_linear_545:17873)"/>
<defs>
<linearGradient id="paint0_linear_545:17873" x1="18.0004" y1="3.1499" x2="18.0004" y2="32.8499" gradientUnits="userSpaceOnUse">
<stop stop-color="#7B00FF"/>
<stop offset="0.494792" stop-color="#FF006E"/>
<stop offset="1" stop-color="#FF8B00"/>
</linearGradient>
</defs>
</svg>

<svg width="36" height="36" fill="none" xmlns="http://www.w3.org/2000/svg"><path fill-rule="evenodd" clip-rule="evenodd" d="M18 3.15c-4.033 0-4.538.018-6.122.089-1.58.073-2.66.324-3.604.69a7.278 7.278 0 00-2.632 1.713A7.28 7.28 0 003.93 8.273c-.367.945-.618 2.024-.69 3.604-.073 1.585-.09 2.09-.09 6.123s.017 4.538.09 6.123c.072 1.58.323 2.66.69 3.604.373.99.957 1.889 1.712 2.631a7.281 7.281 0 002.632 1.712c.944.367 2.024.618 3.604.69 1.584.072 2.09.09 6.122.09 4.034 0 4.538-.018 6.123-.09 1.58-.072 2.66-.323 3.604-.69a7.28 7.28 0 002.632-1.712 7.281 7.281 0 001.712-2.631c.367-.945.617-2.024.69-3.604.072-1.585.09-2.09.09-6.123s-.018-4.538-.09-6.123c-.073-1.58-.323-2.66-.69-3.604a7.28 7.28 0 00-1.712-2.631 7.278 7.278 0 00-2.632-1.712c-.944-.367-2.024-.618-3.604-.691-1.585-.071-2.09-.09-6.123-.09zm0 2.676c3.965 0 4.435.015 6 .086 1.45.067 2.235.307 2.759.51a4.646 4.646 0 011.708 1.112c.52.52.84 1.015 1.11 1.707.202.525.446 1.31.511 2.758.072 1.567.086 2.034.086 6s-.014 4.435-.086 6c-.067 1.45-.309 2.235-.51 2.76a4.603 4.603 0 01-1.111 1.707c-.52.52-1.016.84-1.708 1.111-.524.202-1.31.445-2.758.51-1.565.072-2.034.087-6 .087s-4.436-.015-6-.086c-1.45-.067-2.235-.31-2.76-.511a4.601 4.601 0 01-1.707-1.11 4.6 4.6 0 01-1.11-1.709c-.204-.524-.446-1.31-.512-2.757-.07-1.567-.086-2.035-.086-6.001 0-3.965.015-4.434.086-6 .067-1.449.308-2.234.511-2.759a4.64 4.64 0 011.111-1.707c.52-.52 1.016-.84 1.708-1.111.524-.204 1.31-.446 2.757-.511 1.567-.071 2.035-.086 6.001-.086zm0 17.123a4.95 4.95 0 110-9.899 4.95 4.95 0 010 9.9zm0-12.575a7.626 7.626 0 100 15.253 7.626 7.626 0 000-15.253zm9.71-.301a1.783 1.783 0 11-3.566 0 1.783 1.783 0 013.565 0z" fill="url(#paint0_linear_545:17873)"/><defs><linearGradient id="paint0_linear_545:17873" x1="18" y1="3.15" x2="18" y2="32.85" gradientUnits="userSpaceOnUse"><stop stop-color="#7B00FF"/><stop offset=".495" stop-color="#FF006E"/><stop offset="1" stop-color="#FF8B00"/></linearGradient></defs></svg>
